X: 298
T: 299. Meinen Jesum la\ss ich nicht, weil
N: Derived from chor299.krn
C: Johann Sebastian Bach
%%abc-version 2.0
%%abcx-abcm2ps-target-version 5.9.1 (29 Sep 2008)
%%abc-creator hum2abc beta
%%abcx-conversion-date 2019/03/11 17:28:19
%%abc-edited-by Craig Stuart Sapp
%%humdrum-veritas 1557644770
%%humdrum-veritas-data 263805723
%%
%%barnumbers 0
L: 1/8
M: C
%%staves [1 2 3 4]
V: 1 clef=treble
V: 2 clef=treble
V: 3 clef=treble-8
V: 4 clef=bass
K: Eb
[V:1] B2B2c2c2 | 
[V:2] G2G2E2A2 | 
[V:3] e2e2c2f2 | 
[V:4] E,F, G,E, A,G, A,F, | 
[V:1] d2de/f/!fermata!e4 | 
[V:2] AGA2!fermata!G4 | 
[V:3] fe fd!fermata!B4 | 
[V:4] B,2B,,2!fermata!E,4 | 
[V:1] f2f2e2e2 | 
[V:2] B2BAG3=A | 
[V:3] de fd dc/=B/c2 | 
[V:4] B,,C, D,B,, C,D, E,F, | 
[V:1] d2cd/e/c4 | 
[V:2] B=A GEF3E | 
[V:3] _B2B2BG=A2 | 
[V:4] G,F, E,C,F,2F,,2 | 
[V:1] !fermata!B4B2B2 | 
[V:2] !fermata!D4E2E2 | 
[V:3] !fermata!F4G_A BG | 
[V:4] !fermata!B,,4E,F, G,E, | 
[V:1] c2c2B2AG | 
[V:2] E2A2AGF2 | 
[V:3] ABc2FG AB | 
[V:4] A,G, F,E, D,=E,F,2 | 
[V:1] !fermata!G4B2B2 | 
[V:2] !fermata!=E4EF GE | 
[V:3] !fermata!c4BAG2 | 
[V:4] !fermata!C,4G,F, =E,C, | 
[V:1] A2A2G2FG/A/ | 
[V:2] C2FD_E2E2 | 
[V:3] A2B2B2cA | 
[V:4] F,_E, D,B,, E,G, A,F, | 
[V:1] F4!fermata!E4 | 
[V:2] E2D2!fermata!B,4 | 
[V:3] BGA2!fermata!G4 | 
[V:4] B,2B,,2!fermata!E,4 | 
[V:1] B2B2c2c2 | 
[V:2] G2G2A2AG | 
[V:3] e2e2e2f2 | 
[V:4] E_D CB, A,G, F,E, | 
[V:1] =d2de/f/!fermata!e4 | 
[V:2] F2G2!fermata!G4 | 
[V:3] =Bc =d=B!fermata!c4 | 
[V:4] =D,C, =B,,G,,!fermata!C,4 | 
[V:1] _B2Bc/_d/ cB AG | 
[V:2] E2E2EC DE | 
[V:3] G2G2AE FB | 
[V:4] E,_D, C,_B,, A,,G,, F,,E,, | 
[V:1] FG/A/F2!fermata!E4 |]  
[V:2] E2D2!fermata!B,4 |]  
[V:3] c2BA!fermata!G4 |]  
[V:4] A,,2B,,2!fermata!E,4 |]  



